X:1
T:Shout the Tidings
T:Shout the Tidings
T:Joseph Marion Hunt
T:Sanford Miller Brown, 1889
T:Public Domain Courtesy of the Cyber Hymnal™
C:Joseph Marion Hunt
Z:Public Domain
Z:Courtesy of the Cyber Hymnal™
%%score ( 1 2 ) ( 3 4 )
L:1/8
Q:1/4=102
M:4/4
K:C
V:1 treble 
V:2 treble 
V:3 bass 
V:4 bass 
V:1
 [Ec]3 [Ec] [Ec][Ec][GB][FA] | [EG]2 [CE]4 z2 | [EG]3 [FA] [EG][CE]C[CE] | [B,D]6 z2 | %4
w: 1.~Shout the tid- ings of sal-|va- tion,|Send the Gos- pel’s joy- ous|sound,|
w: 2.~Shout the tid- ings of sal-|va- tion|To the thou- sands near your|home,|
w: 3.~Shout the tid- ings of sal-|va- tion—|See the na- tions press your|shore—|
w: 4.~Shout the tid- ings of sal-|va- tion|Till the na- tions own their|king;|
 [Ec]3 [Ec] [Ec][Ec][GB][FA] | [EG]2 [Ec]4 z2 | [Fd]3 [Fd] [Fd][Ec][Ge][Fd] | [Ec]6 z2 || %8
w: Till the pre- cious in- vi-|ta- tion|Spread to earth’s re- mot- est|bound.|
w: Till your own be- lov- èd|na- tion|To the feet of Je- sus|come.|
w: Sound the Gos- pel in- vi-|ta- tion|To the hea- then at your|door.|
w: Till in joy- ous ex- ul-|ta- tion,|Ev- ery vale and mount shall|sing.|
"^Refrain" [Fd]2 [Fd]2 [Fd]3 [Fd] | [Gc]2 [FB]2 [Ec]2 [EG][EG] | %10
w: ||
w: ||
w: ||
w: ||
 [FA][FA][FA][FA] [^FA][Fd][Fd][Fc] | [GB]6 [Gd][Gd] | [Ge]2 [Fd]2 [Ec]2 [EG]G | %13
w: |||
w: |||
w: |||
w: |||
 [FA]2 [FA]2 [EG]3 [Ec] | [Fd]3 [Fd] [Ge]3 [Fd] | [Ec]6 |] %16
w: |||
w: |||
w: |||
w: |||
V:2
 x8 | x8 | x6 C x | x8 | x8 | x8 | x8 | x8 || x8 | x8 | x8 | x8 | x7 G | x8 | x8 | x6 |] %16
V:3
 [C,G,]3 [C,G,] [C,G,][C,G,][C,C][C,C] | [C,C]2 [C,G,]4 z2 | [C,C]3 [C,C] [C,C][C,G,][C,E,][C,G,] | %3
w: ~ ~ ~ ~ ~ ~|~ ~|~ ~ ~ ~ ~ ~|
 [G,,G,]6 z2 | [C,G,]3 [C,G,] [C,G,][C,G,][C,C][C,C] | [C,C]2 [C,G,]4 z2 | %6
w: ~|~ ~ ~ ~ ~ ~|~ ~|
 [G,B,]3 [G,B,] [G,B,][G,C][G,C][G,B,] | [C,C]6 z2 || [G,B,]2 [G,B,]2 [G,B,]3 [F,B,] | %9
w: ~ ~ ~ ~ ~ ~|~|Spread the news, the|
 [E,C]2 [D,G,]2 [C,G,]2 [C,C][C,C] | [F,C][F,C][F,C][F,C] [D,C][D,A,][D,A,][D,D] | %11
w: glad good news, From the|ris- ing to the set- ting of the|
 [G,D]6 [G,B,][G,B,] | C2 [G,B,]2 [C,C]2 [C,C][E,C] | C2 C2 C3 C | [G,B,]3 [G,B,] [G,C]3 [G,B,] | %15
w: sun, Till the|na- tions come and be-|fore the throne, The|great Re- deem- er|
 [C,C]6 |] %16
w: own.|
V:4
 x8 | x8 | x8 | x8 | x8 | x8 | x8 | x8 || x8 | x8 | x8 | x8 | C2 x6 | (F,G,) (A,B,) C3 C | x8 | %15
 x6 |] %16

